public/assets/features/camera.svg

<svg width="58" height="58" viewBox="0 0 58 58" fill="none" xmlns="http://www.w3.org/2000/svg">
<path d="M46.8327 11.6C45.0198 11.6 43.3555 10.585 42.5233 9.019L40.3835 4.814C39.0164 2.175 35.45 0 32.4185 0H25.6126C22.5515 0 18.9851 2.175 17.618 4.814L15.4781 9.019C14.646 10.585 12.9816 11.6 11.1687 11.6C4.71948 11.6 -0.392363 16.907 0.0237167 23.171L1.56916 47.125C1.9258 53.099 5.22472 58 13.4274 58H44.574C52.7767 58 56.0459 53.099 56.4323 47.125L57.9777 23.171C58.0741 21.6857 57.8572 20.1969 57.3405 18.7967C56.8238 17.3964 56.0183 16.1144 54.9737 15.03C53.9292 13.9455 52.6678 13.0816 51.2676 12.4916C49.8673 11.9017 48.3579 11.5982 46.8327 11.6ZM24.5427 15.225H33.4587C34.6773 15.225 35.6877 16.211 35.6877 17.4C35.6877 18.589 34.6773 19.575 33.4587 19.575H24.5427C23.3242 19.575 22.3137 18.589 22.3137 17.4C22.3137 16.211 23.3242 15.225 24.5427 15.225ZM29.0007 46.748C23.4728 46.748 18.9554 42.369 18.9554 36.946C18.9554 31.523 23.4431 27.144 29.0007 27.144C34.5584 27.144 39.0461 31.523 39.0461 36.946C39.0461 42.369 34.5287 46.748 29.0007 46.748Z" fill="url(#paint0_linear_452_9)"/>
<defs>
<linearGradient id="paint0_linear_452_9" x1="6.04166" y1="-2.94765" x2="53.9171" y2="70.6484" gradientUnits="userSpaceOnUse">
<stop stop-color="#D95662"/>
<stop offset="0.510417" stop-color="#D41A5E"/>
<stop offset="1" stop-color="#BB0872"/>
</linearGradient>
</defs>
</svg>

<svg xmlns="http://www.w3.org/2000/svg" width="58" height="58" fill="none" xmlns:v="https://vecta.io/nano"><path d="M46.833 11.6a4.9 4.9 0 0 1-4.309-2.581l-2.14-4.205C39.016 2.175 35.45 0 32.419 0h-6.806c-3.061 0-6.628 2.175-7.995 4.814l-2.14 4.205a4.9 4.9 0 0 1-4.309 2.581C4.719 11.6-.392 16.907.024 23.171l1.545 23.954C1.926 53.099 5.225 58 13.427 58h31.147c8.203 0 11.472-4.901 11.858-10.875l1.545-23.954a10.64 10.64 0 0 0-.637-4.374 10.84 10.84 0 0 0-2.367-3.767 11.16 11.16 0 0 0-3.706-2.538c-1.4-.59-2.91-.893-4.435-.892zm-22.29 3.625h8.916c1.219 0 2.229.986 2.229 2.175s-1.01 2.175-2.229 2.175h-8.916c-1.218 0-2.229-.986-2.229-2.175s1.011-2.175 2.229-2.175zm4.458 31.523c-5.528 0-10.045-4.379-10.045-9.802s4.488-9.802 10.045-9.802 10.045 4.379 10.045 9.802-4.517 9.802-10.045 9.802z" fill="url(#A)"/><defs><linearGradient id="A" x1="6.042" y1="-2.948" x2="53.917" y2="70.648" gradientUnits="userSpaceOnUse"><stop stop-color="#d95662"/><stop offset=".51" stop-color="#d41a5e"/><stop offset="1" stop-color="#bb0872"/></linearGradient></defs></svg>
